static/images/mobile/copyright/wikipedia-wordmark-km.svg

<?xml version="1.0" encoding="UTF-8"?>
<svg width="81px" height="32px" viewBox="0 0 81 32" version="1.1" xmlns="http://www.w3.org/2000/svg" xmlns:xlink="http://www.w3.org/1999/xlink">
    <title>km-wordmark</title>
    <g id="Page-1" stroke="none" stroke-width="1" fill="none" fill-rule="evenodd">
        <path d="M6.16984738,26.4556601 C5.61400288,26.4556601 5.33608158,26.8219632 5.33608443,27.554541 C5.33608158,29.2639082 5.61400288,30.118587 6.16984738,30.118587 L6.16984738,26.4556601 Z M9.17139535,30.3683301 C9.17139535,31.45611 8.61554705,32 7.50386849,32 L6.16984738,32 C4.50231958,32 3.66855757,30.5181835 3.66855757,27.554541 C3.66855757,25.7119814 4.50231958,24.7907063 6.16984738,24.7906968 L6.16984738,19.6313574 C6.16984738,18.6212841 5.33608158,17.960853 3.66855757,17.6500452 C3.73525625,16.3402841 4.11323032,15.0416144 4.80247599,13.7540267 C5.49171785,12.4664674 6.07535078,11.8226878 6.55337857,11.8226594 C6.93134695,11.8226878 7.43160415,12.0280271 8.05415208,12.4387056 L8.48770965,12.7383935 C8.5432903,12.7606522 8.59887191,12.7717342 8.65446205,12.7717342 C8.99907824,12.7717532 9.17138871,12.3333128 9.17139535,11.4564131 C9.17138871,10.7460467 8.61554705,10.390854 7.50386849,10.3908351 C6.39218044,10.390854 5.83633973,9.93576222 5.83634258,9.02555967 C5.83633973,8.12650542 6.39218044,7.67693568 7.50386849,7.67693568 C9.72723036,7.67693568 10.8389213,8.93678991 10.8389213,11.4564131 L10.8389213,12.2722386 C10.7833311,13.8262303 10.5637719,14.8224368 10.1802483,15.2608582 C9.79671045,15.6993176 9.39372556,15.918533 8.97129171,15.9185141 C8.53772939,15.918533 7.98744581,15.7187348 7.32044094,15.3191288 C6.96469724,15.1193495 6.67010174,15.0194504 6.4366516,15.0194314 C6.02532535,15.0194504 5.75296306,15.4523402 5.61956379,16.3181106 C7.98744581,16.8842119 9.17139535,17.5502029 9.17139535,18.3160647 L9.17139535,30.3683301 Z M0,3.32993611 C0,1.11001028 1.53413518,0 4.60237234,0 C6.51447591,0 8.30984396,0.832514812 9.98848316,2.49744972 L12.5064481,4.99489943 L12.5064481,6.65986275 L3.60185699,6.65986275 C1.20063038,6.65986275 0,5.54991878 0,3.32993611 Z M1.71755229,3.32993611 C1.71755229,4.10694615 2.34566398,4.49544169 3.60185699,4.49541328 L9.48822501,4.49541328 C8.15420864,2.83047837 6.52559299,1.99799198 4.60237234,1.99796356 C2.67916878,1.99799198 1.71755229,2.44198283 1.71755229,3.32993611 Z M16.48813,17.1956733 C16.48813,16.8164506 16.7660494,16.4048344 17.3218939,15.9608246 L18.1695525,15.3087193 C19.281232,14.4115026 19.9760338,13.9628705 20.2539608,13.9628705 C20.5781955,13.9628705 21.1386694,14.2496294 21.9353833,14.8230998 C22.7413455,15.3966081 23.2740271,15.6833481 23.5334291,15.6833291 C23.746493,15.6833481 24.2328537,15.3966081 24.9925148,14.8230998 C25.7428906,14.2496294 26.27094,13.9628705 26.5766649,13.9628705 C26.8823652,13.9628705 27.4891591,14.2958802 28.3970476,14.9618523 C29.2863808,15.6370973 29.809798,15.9747198 29.9673022,15.9747008 C30.1155106,15.9747198 30.2544708,15.9100084 30.3841836,15.780453 C30.0784549,16.982946 29.5504055,17.5841878 28.8000335,17.5841688 C28.4294578,17.5841878 27.9106728,17.3621876 27.2436755,16.9181873 C26.585917,16.4742059 26.1134511,16.2522152 25.8262777,16.2521963 C25.4649693,16.2522152 24.9878721,16.4742059 24.3949843,16.9181873 C23.7835487,17.3621876 23.2647637,17.5841878 22.8386263,17.5841688 C22.2271926,17.5841878 21.6018709,17.3621876 20.9626592,16.9181873 C20.3234352,16.4742059 19.846338,16.2522152 19.5313658,16.2521963 C19.1607996,16.2522152 18.8805627,16.3400946 18.690655,16.5158155 C18.5007378,16.6915744 18.4057812,16.9089523 18.4057859,17.1679304 C18.4057812,17.528683 18.9986794,17.8246769 20.1844807,18.0559121 L18.1973447,18.9022652 C17.0578654,18.7357793 16.48813,18.1669216 16.48813,17.1956733 Z M19.6842226,27.4490914 C20.5735633,26.477862 21.4999664,25.9922521 22.4634327,25.9922426 C23.8530288,25.9922521 24.5478306,26.4917382 24.5478411,27.4907105 C24.5478306,28.2307047 24.03831,28.6006924 23.0192753,28.6006924 C23.0192668,28.3417048 22.8339866,28.2122063 22.4634327,28.2121968 C21.5277586,28.2122063 20.8329568,28.6654416 20.3790253,29.5719218 L19.6842226,30.7928943 L19.6842226,32 L17.1829327,32 L17.1829327,22.9814305 C17.1829327,21.5939721 17.6461314,20.5533713 18.5725383,19.8596184 C19.4989366,19.1659034 21.1201415,18.8190175 23.4361568,18.8190175 C25.752154,18.8190175 27.3733589,19.1659034 28.2997753,19.8596184 C29.2261641,20.5533713 29.6893809,21.5939721 29.6893809,22.9814305 L29.6893809,32 L27.188091,32 L27.188091,22.9814305 C27.1880787,22.0564614 26.900894,21.3627275 26.3265359,20.9002287 C25.7428906,20.4377489 24.7794319,20.2065043 23.4361568,20.2064948 C22.0928637,20.2065043 21.1340372,20.4377489 20.5596743,20.9002287 C19.9760338,21.3627275 19.6842169,22.0564614 19.6842226,22.9814305 L19.6842226,27.4490914 Z M20.8653869,8.69047563 L26.5627693,8.69047563 C25.2750749,7.30302672 23.700191,6.60927384 21.838111,6.60927384 C19.9853162,6.60927384 19.0588999,6.9792899 19.0588999,7.71924623 C19.0588999,8.36675775 19.6610749,8.69050404 20.8653869,8.69047563 Z M27.6744536,7.56662704 L27.6744536,4.94430105 L29.4809396,4.94430105 L29.4809396,10.4941914 L20.8653869,10.4941914 C18.5493925,10.4941914 17.391374,9.56923179 17.391374,7.71924623 C17.391374,5.86930804 18.8736329,4.94430105 21.838111,4.94430105 C23.6909266,4.94430105 25.4279317,5.63806339 27.0491309,7.02551231 L27.6744536,7.56662704 Z M36.4502738,17.1956733 C36.4502738,16.8164506 36.7281923,16.4048344 37.2840368,15.9608246 L38.1316963,15.3087193 C39.2433758,14.4115026 39.9381777,13.9628705 40.2161047,13.9628705 C40.5403394,13.9628705 41.1008132,14.2496294 41.8975272,14.8230998 C42.7034893,15.3966081 43.236171,15.6833481 43.495573,15.6833291 C43.7086359,15.6833481 44.1949975,15.3966081 44.9546586,14.8230998 C45.7050345,14.2496294 46.2330839,13.9628705 46.5388088,13.9628705 C46.844509,13.9628705 47.451303,14.2958802 48.3591915,14.9618523 C49.2485237,15.6370973 49.7719419,15.9747198 49.9294451,15.9747008 C50.0776545,15.9747198 50.2166146,15.9100084 50.3463275,15.780453 C50.0405978,16.982946 49.5125484,17.5841878 48.7621773,17.5841688 C48.3916017,17.5841878 47.8728157,17.3621876 47.2058194,16.9181873 C46.5480599,16.4742059 46.0755949,16.2522152 45.7884216,16.2521963 C45.4271132,16.2522152 44.950016,16.4742059 44.3571282,16.9181873 C43.7456926,17.3621876 43.2269066,17.5841878 42.8007702,17.5841688 C42.1893365,17.5841878 41.5640138,17.3621876 40.9248031,16.9181873 C40.2855791,16.4742059 39.8084809,16.2522152 39.4935097,16.2521963 C39.1229435,16.2522152 38.8427066,16.3400946 38.6527979,16.5158155 C38.4628817,16.6915744 38.367925,16.9089523 38.3679288,17.1679304 C38.367925,17.528683 38.9608233,17.8246769 40.1466236,18.0559121 L38.1594885,18.9022652 C37.0200092,18.7357793 36.4502738,18.1669216 36.4502738,17.1956733 L36.4502738,17.1956733 Z M38.4235133,27.3797199 L37.8398794,27.3797199 C37.3766741,27.3797199 37.1450766,27.9162124 37.1450766,28.9891879 C37.1450766,29.9511634 37.3766741,30.4321511 37.8398794,30.4321511 C38.3030771,30.4321511 38.5346822,29.8077981 38.5346822,28.5590638 C38.5346822,28.0688316 38.4976189,27.6757138 38.4235133,27.3797199 L38.4235133,27.3797199 Z M37.1450766,22.9814305 C37.1450738,21.5939721 37.6082753,20.5533713 38.5346822,19.8596184 C39.4610805,19.1659034 41.0822854,18.8190175 43.3983007,18.8190175 C45.7142979,18.8190175 47.3355028,19.1659034 48.2619192,19.8596184 C49.188308,20.5533713 49.6515247,21.5939721 49.6515247,22.9814305 L49.6515247,32 L47.1502349,32 L47.1502349,22.9814305 C47.1502216,22.0564614 46.8630369,21.3627275 46.2886797,20.9002287 C45.7050345,20.4377489 44.7415757,20.2065043 43.3983007,20.2064948 C42.0550076,20.2065043 41.096181,20.4377489 40.5218172,20.9002287 C39.9381777,21.3627275 39.6463607,22.0564614 39.6463664,22.9814305 C39.6463607,23.3976785 39.877962,24.133041 40.3411692,25.1875086 C40.8043641,26.2419951 41.0359644,27.3658437 41.035971,28.5590638 C41.0359644,30.8530213 40.1095623,32 38.2567609,32 C36.5892321,32 35.755471,30.996396 35.755471,28.9891879 C35.755471,26.9912338 36.4502719,25.9922521 37.8398794,25.9922426 L38.1039041,25.9922426 C38.0297871,25.7795059 37.9417801,25.5806358 37.8398794,25.3956326 C37.3766741,24.5354127 37.1450738,23.7306787 37.1450766,22.9814305 L37.1450766,22.9814305 Z M40.8275308,8.69047563 L46.5249122,8.69047563 C45.2372188,7.30302672 43.6623339,6.60927384 41.8002548,6.60927384 C39.9474601,6.60927384 39.0210437,6.9792899 39.0210437,7.71924623 C39.0210437,8.36675775 39.6232187,8.69050404 40.8275308,8.69047563 Z M47.6365965,7.56662704 L47.6365965,4.94430105 L49.4430835,4.94430105 L49.4430835,10.4941914 L40.8275308,10.4941914 C38.5115354,10.4941914 37.3535178,9.56923179 37.3535178,7.71924623 C37.3535178,5.86930804 38.8357768,4.94430105 41.8002548,4.94430105 C43.6530705,4.94430105 45.3900755,5.63806339 47.0112747,7.02551231 L47.6365965,7.56662704 Z M71.5325283,15.8178572 C71.5841721,16.163275 71.609994,16.5198126 71.610013,16.8874702 L71.610013,18.1743665 C71.610013,20.4922118 67.4780955,22.5884548 64.8663226,23.5078166 C63.4191386,24.0172387 60.452454,24.8133344 60.452454,24.8133344 L60.452454,26.1336472 C60.4524474,27.5041037 60.6719829,28.451161 61.1110596,28.9748287 C61.5501231,29.4984964 62.2087287,29.7603255 63.0868765,29.7603255 C64.1716299,29.7603255 65.4010258,29.3592229 66.7750699,28.5570084 C68.1284271,27.7547939 68.8102772,26.9525794 68.8206221,26.1503649 L68.8206221,23.2423314 L71.610013,23.2423314 L71.610013,31.9329396 L68.8206221,31.9329396 L68.8206221,29.5263529 C68.6346493,29.7046218 68.4280276,29.8828906 68.2007578,30.0611594 C66.6510849,31.3090508 64.9464588,31.9329396 63.0868765,31.9329396 C61.1239668,31.9329396 59.7292727,31.4483242 58.9027915,30.4789797 C58.0763018,29.5096352 57.6630631,28.0611973 57.6630631,26.1336472 L57.6630631,23.6601516 C57.6630631,23.6601516 62.155662,22.6012228 64.3670843,21.8194674 C66.1805922,21.1783778 68.8206221,19.6679469 68.8206221,18.1743665 L68.8206221,16.8874702 C68.8206221,15.1270785 68.4073663,14.2468731 67.5808936,14.2468542 C66.8680383,14.2468731 66.165524,14.8151056 65.4733547,15.9515612 C65.2460612,16.3303955 64.967122,16.5198126 64.6365371,16.5197937 C64.3059332,16.5198126 64.026994,16.3303955 63.7997205,15.9515612 C63.1178609,14.8151056 62.4205148,14.2468731 61.7076794,14.2468542 C60.9018491,14.2468731 60.4834403,15.0602265 60.452454,16.6869142 C60.7520479,16.7203497 61.0154901,16.7927901 61.2427808,16.904188 C61.5733685,17.0713369 61.8342267,17.313673 62.025359,17.6311963 C62.2164772,17.9487575 62.3120391,18.2746539 62.3120467,18.608895 C62.3120391,18.9431739 62.2190613,19.2662856 62.0331075,19.5782395 C61.8471414,19.8902313 61.5888635,20.1325579 61.2582777,20.3052479 C60.9276767,20.4779567 60.5815863,20.5643112 60.2200037,20.5643017 C59.5484796,20.5643112 59.0474227,20.4780136 58.716833,20.3052479 C58.3862339,20.1325579 58.1279589,19.8902313 57.9420013,19.5782395 C57.756039,19.2662856 57.6630631,18.9431739 57.6630631,18.608895 L57.6630631,16.8874702 C57.6630631,15.528181 58.0504742,14.3527205 58.8253097,13.3610699 C59.6001348,12.3694667 60.478275,11.8736272 61.4597331,11.8736272 C62.4308464,11.8736272 63.4897798,12.6201569 64.6365371,14.1131407 C65.793607,12.6201569 66.862871,11.8736272 67.8443359,11.8736272 C68.8154425,11.8736272 69.6884174,12.3694667 70.4632624,13.3610699 C70.5975515,13.5393672 70.7215241,13.7232054 70.8351813,13.9125942 L72.5398084,12.8095457 C73.490249,12.185619 74.0010275,11.8736272 74.9411745,11.8736272 C76.0672401,11.8736272 77.1516539,12.5701174 78.6910075,13.8291192 C80.2303165,15.0993166 81,16.2636477 81,17.3221029 L81,31.9999432 L78.2106119,31.9999432 L78.2106119,17.3221029 C78.2105882,16.8987322 77.7353598,16.3137819 76.7849249,15.5672617 C75.8241129,14.8319086 75.1684376,14.3972854 74.3213112,14.3972664 C73.6910954,14.3972854 73.0511789,14.8708188 71.5325283,15.8178572 L71.5325283,15.8178572 Z" id="km-wordmark" fill="#000000" fill-rule="nonzero"></path>
    </g>
</svg>

<svg xmlns="http://www.w3.org/2000/svg" width="81" height="32"><path fill="#000" fill-rule="nonzero" d="M6.17 26.456c-.556 0-.834.366-.834 1.099 0 1.709.278 2.564.834 2.564v-3.663Zm3.001 3.912c0 1.088-.555 1.632-1.667 1.632H6.17c-1.668 0-2.501-1.482-2.501-4.445 0-1.843.833-2.764 2.5-2.764v-5.16c0-1.01-.833-1.67-2.5-1.981.066-1.31.444-2.608 1.133-3.896.69-1.288 1.273-1.931 1.751-1.931.378 0 .879.205 1.501.616l.434.3a.446.446 0 0 0 .166.033c.345 0 .517-.439.517-1.316 0-.71-.555-1.065-1.667-1.065s-1.668-.455-1.668-1.365c0-.9.556-1.35 1.668-1.35 2.223 0 3.335 1.26 3.335 3.78v.816c-.056 1.554-.275 2.55-.659 2.989-.383.438-.786.658-1.209.658-.433 0-.984-.2-1.65-.6-.356-.2-.65-.3-.884-.3-.412 0-.684.433-.817 1.3 2.367.565 3.551 1.231 3.551 1.997v12.052ZM0 3.33C0 1.11 1.534 0 4.602 0 6.514 0 8.31.833 9.988 2.497l2.518 2.498V6.66H3.602C1.2 6.66 0 5.55 0 3.33Zm1.718 0c0 .777.628 1.165 1.884 1.165h5.886C8.154 2.83 6.526 1.998 4.602 1.998c-1.923 0-2.884.444-2.884 1.332Zm14.77 13.866c0-.38.278-.791.834-1.235l.848-.652c1.111-.897 1.806-1.346 2.084-1.346.324 0 .885.287 1.681.86.806.574 1.339.86 1.598.86.213 0 .7-.286 1.46-.86.75-.573 1.278-.86 1.584-.86.305 0 .912.333 1.82.999.89.675 1.413 1.013 1.57 1.013a.584.584 0 0 0 .417-.195c-.306 1.203-.834 1.804-1.584 1.804-.37 0-.89-.222-1.556-.666-.658-.444-1.13-.666-1.418-.666-.361 0-.838.222-1.431.666-.611.444-1.13.666-1.556.666-.612 0-1.237-.222-1.876-.666-.64-.444-1.117-.666-1.432-.666-.37 0-.65.088-.84.264a.853.853 0 0 0-.285.652c0 .36.593.657 1.778.888l-1.987.846c-1.14-.166-1.709-.735-1.709-1.706Zm3.196 10.253c.89-.971 1.816-1.457 2.78-1.457 1.389 0 2.084.5 2.084 1.499 0 .74-.51 1.11-1.529 1.11 0-.26-.185-.389-.556-.389-.935 0-1.63.453-2.084 1.36l-.695 1.22V32h-2.501v-9.019c0-1.387.463-2.428 1.39-3.121.926-.694 2.547-1.041 4.863-1.041 2.316 0 3.937.347 4.864 1.04.926.694 1.39 1.735 1.39 3.122V32h-2.502v-9.019c0-.925-.287-1.618-.861-2.08-.584-.463-1.548-.694-2.89-.695-1.344 0-2.303.232-2.877.694-.584.463-.876 1.156-.876 2.081v4.468ZM20.865 8.69h5.698c-1.288-1.387-2.863-2.08-4.725-2.08-1.853 0-2.78.37-2.78 1.11 0 .647.603.97 1.807.97Zm6.81-1.123V4.944h1.806v5.55h-8.616c-2.316 0-3.474-.925-3.474-2.775 0-1.85 1.483-2.775 4.447-2.775 1.853 0 3.59.694 5.211 2.082l.625.54Zm8.775 9.629c0-.38.278-.791.834-1.235l.848-.652c1.111-.897 1.806-1.346 2.084-1.346.324 0 .885.287 1.682.86.805.574 1.338.86 1.598.86.213 0 .699-.286 1.459-.86.75-.573 1.278-.86 1.584-.86.306 0 .912.333 1.82.999.89.675 1.413 1.013 1.57 1.013a.584.584 0 0 0 .417-.195c-.305 1.203-.833 1.804-1.584 1.804-.37 0-.89-.222-1.556-.666-.658-.444-1.13-.666-1.418-.666-.36 0-.838.222-1.43.666-.612.444-1.131.666-1.557.666-.612 0-1.237-.222-1.876-.666-.64-.444-1.117-.666-1.431-.666-.371 0-.651.088-.841.264a.853.853 0 0 0-.285.652c0 .36.593.657 1.779.888l-1.988.846c-1.139-.166-1.709-.735-1.709-1.706Zm1.974 10.184h-.584c-.463 0-.695.536-.695 1.61 0 .961.232 1.442.695 1.442.463 0 .695-.624.695-1.873 0-.49-.037-.883-.111-1.18Zm-1.279-4.399c0-1.387.463-2.428 1.39-3.121.926-.694 2.547-1.041 4.863-1.041 2.316 0 3.938.347 4.864 1.04.926.694 1.39 1.735 1.39 3.122V32H47.15v-9.019c0-.925-.287-1.618-.861-2.08-.584-.463-1.547-.694-2.89-.695-1.344 0-2.303.232-2.877.694-.584.463-.876 1.156-.876 2.081 0 .417.232 1.152.695 2.207a8.29 8.29 0 0 1 .695 3.371c0 2.294-.926 3.441-2.78 3.441-1.667 0-2.5-1.004-2.5-3.01 0-1.999.694-2.998 2.084-2.998h.264a3.88 3.88 0 0 0-.264-.596c-.463-.86-.695-1.665-.695-2.415Zm3.683-14.29h5.697c-1.288-1.388-2.863-2.082-4.725-2.082-1.853 0-2.779.37-2.779 1.11 0 .648.602.972 1.807.971Zm6.809-1.124V4.944h1.806v5.55h-8.615c-2.316 0-3.474-.925-3.474-2.775 0-1.85 1.482-2.775 4.446-2.775 1.853 0 3.59.694 5.211 2.082l.626.54Zm23.896 8.25c.051.346.077.703.077 1.07v1.287c0 2.318-4.132 4.414-6.744 5.334-1.447.51-4.414 1.305-4.414 1.305v1.32c0 1.371.22 2.318.66 2.842.438.523 1.097.785 1.975.785 1.085 0 2.314-.4 3.688-1.203 1.353-.802 2.035-1.604 2.046-2.407v-2.908h2.789v8.69h-2.79v-2.406a8.28 8.28 0 0 1-.62.535c-1.549 1.248-3.254 1.872-5.113 1.872-1.963 0-3.358-.485-4.184-1.454-.827-.97-1.24-2.418-1.24-4.345V23.66s4.493-1.059 6.704-1.84c1.814-.642 4.454-2.152 4.454-3.646v-1.287c0-1.76-.414-2.64-1.24-2.64-.713 0-1.415.568-2.108 1.705-.227.378-.506.568-.836.568-.331 0-.61-.19-.837-.568-.682-1.137-1.38-1.705-2.092-1.705-.806 0-1.225.813-1.256 2.44.3.033.563.106.79.217.331.167.592.41.783.727.191.318.287.644.287.978 0 .334-.093.657-.279.97a1.914 1.914 0 0 1-.775.726c-.33.173-.676.26-1.038.26-.672 0-1.173-.087-1.503-.26a1.914 1.914 0 0 1-.775-.727 1.868 1.868 0 0 1-.279-.97v-1.72c0-1.36.387-2.535 1.162-3.527.775-.992 1.653-1.487 2.635-1.487.97 0 2.03.746 3.177 2.24 1.157-1.494 2.226-2.24 3.207-2.24.971 0 1.844.495 2.62 1.487.134.178.258.362.371.552l1.705-1.103c.95-.624 1.461-.936 2.401-.936 1.126 0 2.21.696 3.75 1.955C80.231 15.1 81 16.264 81 17.322V32h-2.79V17.322c0-.423-.475-1.008-1.425-1.755-.96-.735-1.617-1.17-2.464-1.17-.63 0-1.27.474-2.788 1.42Z"/></svg>
